X: 14240
T: Furnill's Frolic
R: slip jig
M: 9/8
K: Dmixolydian
AdA GAG F2 G|A3 AFD EFG|A2d GAG FAd|c3 AGE GEc|
AdA GAG F2 G|Ac/.B/A {B}AFD EFG|AdA GAG FAd|c3 AGE GEc||
|:F2D .E/.F/GE DFG|A3 AFD EFG|.F/.G/AD .E/.F/GE DFd|c3 AGE GEc:|
|:f2 d cAG F2 G|A3 AFD EFA|f2A Bge fAB|cec AGE GEc:|

